X:1
T:James Gibb editions
T:Ascendens Christus - Palestrina
T:#
%%score [ 1 2 3 4 ]
L:1/8
Q:1/4=100
M:4/4
K:G
V:1 treble nm="Soprano" snm="S"
V:2 treble nm="Alto" snm="A"
V:3 treble-8 nm="Tenor" snm="T"
V:4 bass nm="Bass" snm="B"
V:1
"^Ascendens Christus""^G.P. da Palestrina\n(1525-1594)" D4 E4 | F4 G4 | A4 B4 | ^c4 d4 | %4
w: A- scen-|dens Chri-|stus in|al- tum|
 z2 A2 G2 F2 | (EFGE FG A2- |[M:4/4] A2 ^G2) A4 | z2 G2 A4 | B4 c4 | d2 B2 (e4 | dcBA GF E2) | %11
w: Chri- stus in|al\- * * * * * *|* * tum,|a- scen-|dens Chri-|stus in al\-||
 D4 z4 | z8 | z2 A2 A2 G2 | d2 e4 d2 | (d3 cBA d2- | d2 ^cB c4) | d8 | z4 z2 d2 | c2 B2 (cded | %20
w: tum,||a- scen- dens|Chri- stus in|al\- * * * *||tum.|Al-|le- lu- ja, * * *|
 cBAG FG AG/A/ | B4) z2 A2 | (Bcdc BAGF | EF G4) F2 | (G3 F E4- | E4) z2 e2 | d2 ^c2 d4- | d4 z4 | %28
w: |* al-|le\- * * * * * * *|* * * lu-|ja * *|* al-|le- lu- ja||
 z8 | G4 E2 F2 | G4 E2 E2 | F2 D2 E4 | D2 F2 (G2 FE | D2) E2 G4 | D4 z2 d2 | B2 ^c2 d4 | %36
w: |Ca- pti- vam|du- xit ca-|pti- vi- ta-|tem ca- pti\- * *|* vi- ta-|tem, ca-|pti- vam du-|
 B2 G2 A2 B2 | (c2 B4 A2) | B8 | z2 (A4 G2) | (EFGE F2) (G2- | GF D2) E4 | z2 (e4 d2 | %43
w: xit ca- pti- vi-|ta\- * *|tem.|Al\- *|le\- * * * * lu\-|* * * ja,|al\- *|
 c2 B2) (GABG | A2 B3 AGF | E2 F2) D4 | E4 z2 F2- | F2 F2 G4 | F2 G2 E2 F2 | (G3 FGA B2) | %50
w: * * le\- * * *||* * lu-|ja. De\-|* dit do-|na ho- mi- ni-|bus * * * *|
 A2 G4 E2 | (=F4 E4) | z2 A4 A2 | B2 A2 G2 (B2- | BA G4) F2 | G4 z4 | d4 (c2 Bc | dA c2) B3 (A/G/ | %58
w: ho- mi- ni-|bus, *|de- dit|do- na ho- mi\-|* * * ni-|bus.|Al- le\- * *|* * * lu- ja, *|
 A4) z2 G2 | (F2 EFGE D2) | E4 D4 | z2 d2 (c2 Bc | dA c2 B2 A2 | G4) A4 | d4 e2[Q:1/4=99] (d2- | %65
w: * al-|le\- * * * * *|lu- ja,|al- le\- * *||* lu-|ja, al- le\-|
[Q:1/4=97] d[Q:1/4=96]c[Q:1/4=95] e3[Q:1/4=93] d[Q:1/4=92] d2 | %66
w: |
[Q:1/4=90] ^c2[Q:1/4=88] d4)[Q:1/4=85] c2 |[Q:1/4=85] !fermata!d8 |] %68
w: * * lu-|ja.|
V:2
 z8 | D4 E4 | F4 G4 | A4 B4 | ^c4 d4 | z2 e2 d2 c2 |[M:4/4] B4 A2 d2 | (B2- ^c2 d3 =c | BA G4) F2 | %9
w: |A- scen-|dens Chri-|stus in|al- tum,|Chn- stus in|al- tum in|al\- * * *|* * * tum,|
 z2 G2 A4- | A2 B4 ^c2 | d2 d4 (e2- | eA e3 d d2- | d2 ^c2) (d=cBA | G4) A4 | A2 B4 G2 | A4 A4 | %17
w: a- scen\-|* dens Chri-|stus in al\-||* * tum * * *|* Chn-|stus in al-|tum. Al-|
 G2 F2 (GA BA/B/ | c2 B2 A4 | G4) z2 G2 | (ABcB AGFE | D2 G4 F2) | (E2 D2 E3 F | G4) D4 | %24
w: le- lu- ja, * * * *||* al-|le\- * * * * * * *||lu\- * * *|* ja,|
 z2 d2 c2 B2 | (cded cBAG | F2 G4 F2 | G2) d4 B2 | ^c2 d4 B2- | B2 G2 A2 B2 | (c-B B4 A2) | B4 z4 | %32
w: al- le- lu-|ja. * * * * * * *||* Ca- pti-|vam du- xit|* ca- pti- vi-|ta\- * * *|tem,|
 z4 d4 | B2 ^c2 d4 | B2 G2 A2 B2 | (G3 A B2 A2) | d8 | z4 z2 (e2- | e2 d2) (BcdB | c6 B2 | %40
w: ca-|pti- vam du-|xit ca- pti- vi-|ta\- * * *|tem.|Al\-|* * le\- * * *||
 GABG A2 B2- | BA F2 G2 A2- | A2 G2) F4 | E4 z2 (e2- | e2 d2 B2) (c2- | cB A4) ^G2 | A4 z2 A2- | %47
w: ||* * lu-|ja, al\-|* * * le\-|* * * lu-|ja. De\-|
 A2 A2 B4 | A2 B2 G2 A2 | (B3 ABc d2) | c2 B4 G2 | (A4 B3 A/B/ | cBAG F4- | F4) z4 | z4 z2 d2 | %55
w: * dit do-|na ho- mi- ni-|bus, * * * *|ho- mi- ni-|bus. * * *|||Al-|
 (c2 BcdA c2 | B2 A4 G2 | F2 E2) G4 | D2 d2 (e2 d2- | dc e3 d d2- | d2) ^c2 d4- | d4 z4 | z4 d4 | %63
w: le\- * * * * *||* * lu-|ja, al- le\- *||* lu- ja,||al-|
 (c2 BcdA c2) | B2 A2 z2 G2 | (F2 EFGF D2 | E2 F2) E4 | !fermata!F8 |] %68
w: le\- * * * * *|lu- ja, al-|le\- * * * * *|* * lu-|ja.|
V:3
 z8 | z8 | z8 | z8 | z8 | z8 |[M:4/4][K:treble-8] z4 D4 | E4 F4 | G4 A4 | B4 ^c4 | d4 z2 G2 | %11
w: ||||||A-|scen- dens|Chri- stus|in al-|tum, a-|
 A4 B4 | ^c4 d4 | e4 (d3 c | B2 c3 BAG | F2 G3 F D2) | E4 z2 A2 | (Bcdc BAGF | EF G4) F2 | G4 z4 | %20
w: scen- dens|Chn- stus|in al\- *|||tum. Al-|le\- * * * * * * *|* * * lu-|ja,|
 z8 | z4 A4 | G2 F2 (GA BA/B/ | c2 B2 A2 GF) | E2 B2 A2 G2 | (ABcd edcB | A2 G2 A4 | B4) z2 d2 | %28
w: |al-|le- lu- ja, * * * *||* al- le- lu-|ja. * * * * * * *||* Ca-|
 G2 A2 (BcdB | e6) d2 | z8 | d4 B2 ^c2 | d4 (B3 A | G2) A2 B2 B2 | (G4 F3 E/D/ | E4) D4 | %36
w: pti- vam du\- * * *|* xit,||ca- pti- vam|du- xit *|* ca- pti- vi-|ta\- * * *|* tem,|
 z2 G2 F2 G2 | (FG G4 FE | F4 G4) | E4 z4 | z2 (e4 d2) | (BcdB c3 B/A/ | B4 A4 | e8 | z4 G4 | %45
w: ca- pti- vi-|ta\- * * * *||tem.|Al\- *|le\- * * * * * *|* lu-|ja,|al-|
 A4 B2 (d2- | d2 ^cB c2) d2- | d2 d2 d4 | d4 z4 | z2 d4 d2 | e4 d2 e2 | c2 d2 e4- | e4 d4 | %53
w: le- lu- ja.|* * * * De\-|* dit do-|na,|de- dit|do- na ho-|mi- ni- bus,|* de-|
 d2 d2 B2 G2 | B2 B2 A4 | z2 G2 F2 EF | GD =F2 E4 | D2 CDEF G2- | G2) F2 G2 B2 | (A2 GABA FG) | %60
w: dit do- na ho-|mi- ni- bus.|Al- le\- * *|||* lu- ja, al-|le\- * * * * * *|
 A4 F2 F2 | (B2 A3 G B2) | A2 G2 z4 | z2 G2 (F2 EF | GD) =F2 E2 B2 | (A2 GABA FG) | A8 | %67
w: lu- ja, al-|le\- * * *|lu- ja,|al- le\- * *|* * lu- ja, al-|le\- * * * * * *|lu-|
 !fermata!A8 |] %68
w: ja.|
V:4
 z8 | z8 | z8 | z4 G,,4 | A,,4 B,,4 | C,4 D,4 |[M:4/4] E,4 F,4 | (G,3 F,/E,/ D,4) | %8
w: |||A-|scen- dens|Chri- stus|in al-|tum, * * *|
 (G,,2 B,,2) A,,4 | G,,4 z4 | D,4 E,4 | F,4 G,4 | A,4 B,4 | (A,3 G, F,2 G,2- | G,F,E,D, C,2 D,2- | %15
w: in * al-|tum,|a- scen-|dens Chri-|stus in|al\- * * *||
 D,C,B,,A,, G,,2 B,,2) | A,,8 | z8 | z4 z2 D,2 | (E,F,G,F, E,D,C,B,, | A,,4) D,4 | (B,,3 C, D,4) | %22
w: |tum.||Al-|le\- * * * * * * *|* lu-|ja, * *|
 z8 | z4 z2 D,2 | C,2 B,,2 (C,D,E,D, | C,B,, A,,3 B,, C,2 | D,2 E,2 D,4 | G,,4) G,4 | E,2 F,2 G,4 | %29
w: |al-|le- lu- ja. * * *|||* Ca-|pti- vam du-|
 (E,3 D, C,2) D,2 | E,2 E,2 C,4 | B,,2 B,,2 G,,2 A,,2 | B,,4 G,,2 B,,2 | B,,2 A,,2 G,,4- | %34
w: xit * * ca-|pti- vi- ta-|tem, ca- pti- vam|du- xit ca-|pti- vi- ta\-|
 G,,4 D,4 | z2 G,2 G,2 F,2 | G,4 D,2 G,,2 | A,,2 B,,2 C,4 | B,,2 B,,4 G,,2 | A,,4 E,4- | E,4 z4 | %41
w: * tem,|ca- pti- vam|du- xit ca-|pti- vi- ta-|tem. Al- le-|lu- ja||
 z8 | z4 z2 (A,2- | A,2 G,2) (E,F,G,E, | F,2 G,3 F,E,D, | C,2 D,2) B,,4 | A,,4 z2 D,2- | %47
w: |al\-|* * le\- * * *||* * lu-|ja. De\-|
 D,2 D,2 G,,4 | D,2 B,,2 C,2 A,,2 | G,,8 | z8 | z2 A,4 ^G,2 | A,4 D,2 D,2- | D,2 D,2 E,4 | %54
w: * dit do-|na ho- mi- ni-|bus,||de- dit|do- na, de\-|* dit do-|
 D,2 E,2 C,2 D,2 | E,4 z4 | z8 | z8 | z2 D,2 (C,2 B,,C, | D,A,, C,2) B,,4 | A,,4 z2 A,2 | %61
w: na ho- mi- ni-|bus.|||Al- le\- * *|* * * lu-|ja, al-|
 (G,2 F,G,A,E, G,2 | F,2 E,F,G,D, =F,2 | E,4) D,2 A,,2 | z2 D,2 (C,2 B,,C, | D,A,, C,2 B,,4) | %66
w: le\- * * * * *||* lu- ja,|al- le\- * *||
 A,,8 | !fermata!D,8 |] %68
w: lu-|ja.|

